X:1
T:Title
%%score { ( 1 3 4 ) | ( 2 5 6 ) }
L:1/8
M:6/4
K:D
V:1 bass nm="Grand Piano"
V:3 bass 
V:4 bass 
V:2 bass 
V:5 bass 
V:6 bass 
V:1
 z6 z4 A,,2 | z2[K:treble] A2 G2 z2[K:bass] D,2 G,2 | z6[K:treble] .=A6[K:bass] | %3
 z2[K:treble] B2 A2 [B,CG]2 [CE]2 [B,C]2 | [F,A,D]2 [A,E]2[K:treble] [G,A,C]2 [A,D]2 [DF]2 [DFA]2 | %5
 [DGd]2 [Gd]4 [FAd]6 | [EGd]2 [Gc]2 [GB]2 [FA]6 | [DFB]2 F2 G2 [DE^G]2 [EGc]2 [EGB]2 | %8
[M:9/8] [CEA]2 [Ac]- [Ac] [Ad]2 [GAce]3 |[M:6/8][Q:1/4=81] z6 | z z z/ A/- A3 | z6 | z2 e- e3- | %13
 e3 z3 | z2 A- A z z |[M:7/8] z7 |[M:3/4] z2 .F2 z2 | z6 |] %18
V:2
 z12 | z2 [A,D]2 [E,A,C]2 .[E,A,D]6 | z2[K:treble] [B,DF]2 [^A,DF]2 .[=A,DF]6 | %3
 z2[K:bass] [CE]2 [CE]2 z2 A,2 A,2 | z2 G,2 E,2 F,2 A,2 =C2 | z2 D4 z6 | z6 D6 | %7
 z2 D2 D2 z2 C2 C2 |[M:9/8] z2 E- E E2 A,3 |[M:6/8] D,D,[D,A,]- [D,A,][D,A,][D,^A,]/[D,B,]/- | %10
 [D,B,].[D,^G,]>C- CB,A, | [D,A,D][D,D][F,D]- [F,D][K:treble][A,EA][B,E^G]/[B,EG]/- | %12
 [B,EG][DE^G][CEA]/[CE]/- [CE][B,D][A,C]- | [A,C][A,F]/[K:bass][A,E]/[D,A,]- [D,A,][D,A,][F,B,]- | %14
 [F,B,][K:treble][^G,D=F]/[G,DF]/[D^F]- [DF][K:bass][D,A,][B,,F,B,]- | %15
[M:7/8] [B,,F,B,]B,/B,/ [E,B,]3 [E,E][K:treble][A,F]/[A,F]/- | %16
[M:3/4] [A,F][K:bass][A,E] [D,D]<[F,A,] [G,B,]2- | [G,B,]<[D,A,] z2 z2 |] %18
V:3
 x12 | .F,6[K:treble] .F6[K:bass] | z2[K:treble] B2 ^A2 z2[K:bass] E,3 D, | E,6[K:treble] z6 | %4
 x4[K:treble] x8 | x12 | x12 | x12 |[M:9/8] x9 |[M:6/8] [A,F][A,FA][Fd]- [Fd][Fc][Fe]/[Fd]/- | %10
 [Fd][=FB].[A,^FA] z GF | F[FA][Ad]- [Ad]ce/d/- | d.B>A- A^G=G- | Gd/c/[Fe]- [Fe][Fd]E- | %14
 Ec<.B F,F[DB]- |[M:7/8] [DB]B/B/ [Ge]3 [GB][Bd]/[Ad]/- |[M:3/4] [Ad][Gc] d-<[Dd-] [Ed]2- | %17
 [Ed-]<[Fd] z2 z2 |] %18
V:4
 x12 | x2[K:treble] x6[K:bass] x4 | .F,12[K:treble][K:bass] | x2[K:treble] x10 | x4[K:treble] x8 | %5
 x12 | x12 | x12 |[M:9/8] x9 |[M:6/8] x6 | x6 | x6 | x6 | x6 | x6 |[M:7/8] x7 |[M:3/4] x6 | x6 |] %18
V:5
 x12 | x12 | x2[K:treble] x10 | z6[K:bass] A,,6 | .D,12 | z B,3 z2 z6 | z2 E2 C2 z2 F,2 D,2 | %7
 B,,6 [E,,E,]6 |[M:9/8] A,,8- A,, |[M:6/8] x6 | z2 D,- D,3 | x4[K:treble] x2 | x6 | %13
 x3/2[K:bass] x9/2 | z2[K:treble] A, z3[K:bass] |[M:7/8] x6[K:treble] x |[M:3/4] x[K:bass] x5 | %17
 x6 |] %18
V:6
 x12 | x12 | x2[K:treble] x10 | x2[K:bass] x10 | x12 | .B,4 B,2 D,2 E,2 F,2 | .A,12 | x12 | %8
[M:9/8] x9 |[M:6/8] x6 | x6 | x4[K:treble] x2 | x6 | x3/2[K:bass] x9/2 | %14
 x[K:treble] x3[K:bass] x2 |[M:7/8] x6[K:treble] x |[M:3/4] x[K:bass] x5 | x6 |] %18

